assets/work/logofolio/logofolio-3.svg

<svg width="272" height="106" viewBox="0 0 272 106" fill="none" xmlns="http://www.w3.org/2000/svg">
<g clip-path="url(#clip0_5210_2616)">
<path d="M164.05 64.2128C165.42 61.293 166.1 58.097 166.038 54.8722C166.038 49.6846 164.987 45.5657 162.886 42.5158C160.917 39.5773 158.152 37.2607 154.914 35.8372C151.173 34.2863 147.27 33.1605 143.279 32.4809C142.686 32.3583 142.101 32.2426 141.515 32.1405C140.93 32.0383 140.338 31.943 139.745 31.8545C136.534 31.3448 133.353 30.6631 130.214 29.8122C128.066 29.2222 126.096 28.1141 124.475 26.5852C122.946 25.101 122.179 23.0428 122.174 20.4104C122.152 19.1747 122.47 17.9568 123.093 16.8895C123.716 15.8222 124.621 14.9465 125.707 14.3581C128.063 12.9148 131.406 12.1932 135.736 12.1932C138.597 12.2414 141.43 12.7707 144.116 13.759C146.844 14.7287 149.449 16.0152 151.877 17.5919C152.14 17.7649 152.456 17.8368 152.768 17.7942C153.08 17.7516 153.366 17.5975 153.572 17.3604L160.38 9.62656C160.513 9.47376 160.611 9.29475 160.67 9.10125C160.728 8.90775 160.745 8.7041 160.719 8.50362C160.693 8.30314 160.626 8.11035 160.52 7.93783C160.415 7.76532 160.275 7.61696 160.108 7.50248C158.04 6.11892 155.856 4.91844 153.579 3.91469C150.733 2.6599 147.768 1.6951 144.729 1.03492C141.706 0.370766 138.62 0.0329762 135.525 0.0273438C130.015 0.0273438 125.294 0.832954 121.364 2.44417C117.728 3.82221 114.602 6.28432 112.411 9.49721C110.307 12.8329 109.243 16.7197 109.355 20.6623C109.355 26.6805 110.596 31.2895 113.079 34.4892C113.204 34.6453 113.294 34.8259 113.345 35.0193C113.395 35.2127 113.404 35.4146 113.372 35.6117C113.339 35.8089 113.265 35.997 113.155 36.1637C113.044 36.3304 112.9 36.472 112.732 36.5792C110.307 38.0407 108.287 40.0864 106.856 42.5294C105.08 45.7517 104.199 49.3904 104.303 53.0681C104.303 57.5795 105.27 61.2104 107.203 63.9608C109.082 66.6591 111.675 68.7808 114.692 70.088C118.243 71.5677 121.943 72.661 125.728 73.349C126.099 73.3881 126.467 73.4495 126.831 73.5328C127.194 73.6212 127.562 73.6849 127.934 73.7235L131.467 74.2885C135.552 74.9557 138.715 75.582 140.957 76.1675C143.015 76.6587 144.934 77.6134 146.567 78.9588C147.312 79.6056 147.9 80.4126 148.288 81.3194C148.676 82.2261 148.853 83.2089 148.807 84.1941C148.807 86.9536 147.482 89.0958 144.831 90.6208C142.18 92.1458 138.441 92.9083 133.612 92.9083C130.21 92.8677 126.836 92.2863 123.617 91.1859C120.416 90.1293 117.348 88.7061 114.474 86.9445C114.203 86.775 113.879 86.7125 113.564 86.7691C113.249 86.8258 112.967 86.9975 112.772 87.2509L105.74 96.1693C108.073 98.1205 110.661 99.7444 113.433 100.996C116.417 102.365 119.549 103.386 122.766 104.039C126.126 104.732 129.548 105.079 132.978 105.074C139.033 105.074 144.202 104.259 148.487 102.63C152.771 101.001 156.041 98.6179 158.297 95.4817C160.608 92.1792 161.801 88.2236 161.701 84.1941C161.701 78.8839 160.43 74.7991 157.889 71.9398C157.78 71.824 157.664 71.7151 157.555 71.5926C157.807 71.4292 158.059 71.2658 158.297 71.0956C160.763 69.3216 162.742 66.9543 164.05 64.2128ZM133.189 62.8988L131.549 62.6469L130.732 62.5176C128.268 62.1646 125.841 61.5881 123.481 60.7951C121.709 60.211 120.114 59.1875 118.845 57.8201C117.655 56.4262 117.037 54.6335 117.116 52.8026C117.116 49.6256 118.271 47.2519 120.581 45.6815C122.891 44.1111 126.261 43.3214 130.691 43.3123H131.372C131.599 43.3152 131.827 43.3311 132.052 43.36L132.822 43.4553L133.945 43.6323L134.258 43.6868L135.62 43.8842C135.953 43.925 136.301 43.9795 136.661 44.0408C137.022 44.1021 137.342 44.1565 137.703 44.1973C140.509 44.5786 143.281 45.175 145.995 45.981C147.977 46.5641 149.777 47.6445 151.224 49.1195C152.549 50.5219 153.212 52.435 153.212 54.8586C153.267 56.3286 152.959 57.7896 152.316 59.1124C151.672 60.4352 150.712 61.579 149.522 62.4427C148.015 63.5236 146.31 64.2964 144.504 64.7165C144.31 64.7641 144.106 64.7641 143.912 64.7165C141.264 64.1379 138.254 63.6068 134.864 63.1235L133.189 62.8988Z" fill="#3A3A39"/>
<path d="M21.2127 22.9902H0.986328V80.2996H13.6967C14.0684 80.307 14.4283 80.1688 14.6993 79.9143C14.9703 79.6598 15.131 79.3094 15.1469 78.938V61.6935C15.1611 61.3215 15.3213 60.97 15.5927 60.7152C15.8641 60.4604 16.2248 60.3227 16.5969 60.3319H21.2127C36.2583 60.3319 45.238 53.2176 45.238 41.3036C45.238 32.9162 41.0715 22.9902 21.2127 22.9902ZM15.1469 36.4019C15.1628 36.0305 15.3235 35.6801 15.5945 35.4256C15.8655 35.1712 16.2253 35.0329 16.5969 35.0403H20.4026C30.315 35.0403 31.1047 37.7635 31.1047 41.2764C31.1047 44.6804 30.281 48.275 20.4026 48.275H16.6242C16.252 48.2842 15.8912 48.1465 15.6198 47.8917C15.3484 47.6368 15.1884 47.2854 15.1742 46.9134L15.1469 36.4019Z" fill="#3A3A39"/>
<path d="M74.2809 22.0645C59.46 22.0645 49.5 33.8558 49.5 51.4135C49.5 69.2436 59.46 81.2188 74.2809 81.2188C89.1018 81.2188 99.0619 69.2436 99.0619 51.4135C99.0619 33.8558 89.1018 22.0645 74.2809 22.0645ZM74.2809 68.733C66.6356 68.733 63.9124 59.7873 63.9124 51.4135C63.9124 43.244 66.6356 34.5502 74.2809 34.5502C81.9262 34.5502 84.6496 43.2644 84.6496 51.4135C84.6496 59.7873 81.9262 68.733 74.2809 68.733Z" fill="#3A3A39"/>
<path d="M209.362 64.2675C206.346 67.3583 203.323 68.7335 199.558 68.7335C190.98 68.7335 185.65 62.123 185.65 51.4889C185.65 41.0455 190.98 34.5507 199.558 34.5507C201.158 34.5301 202.746 34.833 204.226 35.4414C205.706 36.0497 207.048 36.9509 208.171 38.0909L209.689 39.5614C209.968 39.8297 210.34 39.9796 210.727 39.9796C211.114 39.9796 211.486 39.8297 211.765 39.5614L218.682 32.5832C218.809 32.4568 218.909 32.3066 218.977 32.1413C219.046 31.976 219.081 31.7989 219.081 31.6199C219.081 31.441 219.046 31.2638 218.977 31.0985C218.909 30.9332 218.809 30.783 218.682 30.6566L217.279 29.295C212.56 24.6559 206.197 22.0716 199.579 22.1058C182.641 22.1058 171.258 33.9925 171.258 51.6864C171.258 69.1011 182.627 81.2601 198.905 81.2601C206.795 81.2601 213.44 78.4212 218.648 72.8114L219.955 71.409C220.198 71.1483 220.33 70.8026 220.321 70.4462C220.312 70.0897 220.163 69.751 219.907 69.5028L212.95 62.7561C212.673 62.4809 212.298 62.3264 211.908 62.3264C211.518 62.3264 211.143 62.4809 210.866 62.7561L209.362 64.2675Z" fill="#3A3A39"/>
<path d="M246.82 22.0645C231.999 22.0645 222.039 33.8558 222.039 51.4135C222.039 69.2436 231.999 81.2188 246.82 81.2188C261.641 81.2188 271.601 69.2436 271.601 51.4135C271.615 33.8558 261.641 22.0645 246.82 22.0645ZM246.82 68.733C239.175 68.733 236.452 59.7873 236.452 51.4135C236.452 43.244 239.175 34.5502 246.82 34.5502C254.465 34.5502 257.189 43.2644 257.189 51.4135C257.189 59.7873 254.465 68.733 246.82 68.733Z" fill="#3A3A39"/>
<path d="M232.701 103.903H235.37V97.7014H233.327V96.9593C234.149 96.8922 234.953 96.6826 235.703 96.3398H236.602V103.903H239.005V104.816H232.728L232.701 103.903Z" fill="#3A3A39"/>
<path d="M239.469 104.06L240.15 103.38C240.667 103.815 241.319 104.055 241.995 104.06C243.486 104.06 244.807 103.094 244.807 100.275C244.807 98.192 243.922 97.0823 242.397 97.0823C242.145 97.0655 241.893 97.1006 241.656 97.1855C241.419 97.2704 241.202 97.4032 241.019 97.5757C240.836 97.7482 240.69 97.9566 240.591 98.188C240.491 98.4194 240.441 98.6687 240.443 98.9204C240.443 100.078 241.123 100.711 242.417 100.711C242.878 100.689 243.329 100.571 243.743 100.366C244.157 100.161 244.523 99.873 244.82 99.5196L244.861 100.377C244.146 101.089 243.187 101.503 242.179 101.535C240.47 101.535 239.312 100.656 239.312 98.9204C239.312 97.307 240.749 96.1973 242.383 96.1973C244.425 96.1973 245.937 97.5589 245.937 100.282C245.937 103.686 244.064 104.98 242.063 104.98C241.116 104.995 240.195 104.668 239.469 104.06Z" fill="#3A3A39"/>
<path d="M251.688 97.293H246.371V96.3398H253.063V97.0206C250.619 99.5804 250.02 101.487 249.877 104.795H248.618C248.619 101.989 249.722 99.2952 251.688 97.293Z" fill="#3A3A39"/>
<path d="M254.275 104.142C257.407 101.609 259.116 100.125 259.116 98.6956C259.116 97.7289 258.476 97.0549 257.114 97.0549C256.275 97.0944 255.482 97.4551 254.901 98.0625L254.221 97.4361C254.621 97.0323 255.097 96.7113 255.622 96.4917C256.146 96.272 256.709 96.1581 257.277 96.1562C259.136 96.1563 260.294 97.1502 260.294 98.6411C260.294 100.132 258.557 101.807 256.052 103.89C256.631 103.849 257.223 103.822 257.774 103.822H260.804V104.762H254.296L254.275 104.142Z" fill="#3A3A39"/>
<path d="M267.713 100.567C267.72 100.729 267.678 100.889 267.594 101.026C267.509 101.164 267.385 101.273 267.237 101.34C267.09 101.406 266.926 101.427 266.767 101.4C266.608 101.373 266.46 101.298 266.343 101.186C266.227 101.075 266.146 100.93 266.112 100.772C266.078 100.614 266.092 100.45 266.152 100.3C266.212 100.15 266.316 100.021 266.45 99.9305C266.584 99.8399 266.742 99.7914 266.903 99.7913C267.007 99.7886 267.111 99.8066 267.209 99.8442C267.306 99.8818 267.395 99.9383 267.47 100.01C267.545 100.083 267.606 100.169 267.647 100.265C267.689 100.36 267.712 100.463 267.713 100.567Z" fill="#3A3A39"/>
<path d="M227.065 100.567C227.072 100.729 227.03 100.889 226.945 101.026C226.861 101.164 226.736 101.273 226.589 101.34C226.442 101.406 226.278 101.427 226.119 101.4C225.959 101.373 225.812 101.298 225.695 101.186C225.578 101.075 225.498 100.93 225.464 100.772C225.429 100.614 225.443 100.45 225.504 100.3C225.564 100.15 225.667 100.021 225.801 99.9305C225.935 99.8399 226.093 99.7914 226.255 99.7913C226.359 99.7886 226.463 99.8066 226.56 99.8442C226.657 99.8818 226.746 99.9383 226.822 100.01C226.897 100.083 226.957 100.169 226.999 100.265C227.041 100.36 227.063 100.463 227.065 100.567Z" fill="#3A3A39"/>
</g>
<defs>
<clipPath id="clip0_5210_2616">
<rect width="270.609" height="105.033" fill="white" transform="translate(0.986328)"/>
</clipPath>
</defs>
</svg>

<?xml version="1.0" encoding="UTF-8"?>
<svg id="Layer_1" data-name="Layer 1" xmlns="http://www.w3.org/2000/svg" width="272" height="106" viewBox="0 0 272 106">
  <path d="M164.05,64.21c1.37-2.92,2.05-6.12,1.99-9.34,0-5.19-1.05-9.31-3.15-12.36-1.97-2.94-4.73-5.26-7.97-6.68-3.74-1.55-7.64-2.68-11.63-3.36-.59-.12-1.18-.24-1.76-.34-.59-.1-1.18-.2-1.77-.29-3.21-.51-6.39-1.19-9.53-2.04-2.15-.59-4.12-1.7-5.74-3.23-1.53-1.48-2.3-3.54-2.3-6.17-.02-1.24.3-2.45.92-3.52.62-1.07,1.53-1.94,2.61-2.53,2.36-1.44,5.7-2.16,10.03-2.16,2.86.05,5.69.58,8.38,1.57,2.73.97,5.33,2.26,7.76,3.83.26.17.58.24.89.2.31-.04.6-.2.8-.43l6.81-7.73c.13-.15.23-.33.29-.53.06-.19.07-.4.05-.6-.03-.2-.09-.39-.2-.57-.11-.17-.25-.32-.41-.44-2.07-1.38-4.25-2.58-6.53-3.59-2.85-1.25-5.81-2.22-8.85-2.88-3.02-.66-6.11-1-9.2-1.01-5.51,0-10.23.81-14.16,2.42-3.64,1.38-6.76,3.84-8.95,7.05-2.1,3.34-3.17,7.22-3.06,11.17,0,6.02,1.24,10.63,3.72,13.83.12.16.21.34.27.53.05.19.06.4.03.59-.03.2-.11.39-.22.55-.11.17-.25.31-.42.42-2.43,1.46-4.44,3.51-5.88,5.95-1.78,3.22-2.66,6.86-2.55,10.54,0,4.51.97,8.14,2.9,10.89,1.88,2.7,4.47,4.82,7.49,6.13,3.55,1.48,7.25,2.57,11.04,3.26.37.04.74.1,1.1.18.36.09.73.15,1.1.19l3.53.56c4.09.67,7.25,1.29,9.49,1.88,2.06.49,3.98,1.45,5.61,2.79.74.65,1.33,1.45,1.72,2.36.39.91.57,1.89.52,2.87,0,2.76-1.33,4.9-3.98,6.43-2.65,1.53-6.39,2.29-11.22,2.29-3.4-.04-6.78-.62-10-1.72-3.2-1.06-6.27-2.48-9.14-4.24-.27-.17-.6-.23-.91-.18-.32.06-.6.23-.79.48l-7.03,8.92c2.33,1.95,4.92,3.58,7.69,4.83,2.98,1.37,6.12,2.39,9.33,3.04,3.36.69,6.78,1.04,10.21,1.03,6.06,0,11.22-.81,15.51-2.44,4.28-1.63,7.55-4.01,9.81-7.15,2.31-3.3,3.5-7.26,3.4-11.29,0-5.31-1.27-9.39-3.81-12.25-.11-.12-.23-.22-.33-.35.25-.16.5-.33.74-.5,2.47-1.77,4.45-4.14,5.75-6.88ZM133.19,62.9l-1.64-.25-.82-.13c-2.46-.35-4.89-.93-7.25-1.72-1.77-.58-3.37-1.61-4.64-2.98-1.19-1.39-1.81-3.19-1.73-5.02,0-3.18,1.16-5.55,3.47-7.12s5.68-2.36,10.11-2.37h.68c.23,0,.46.02.68.05l.77.1,1.12.18.31.05,1.36.2c.33.04.68.1,1.04.16.36.06.68.12,1.04.16,2.81.38,5.58.98,8.29,1.78,1.98.58,3.78,1.66,5.23,3.14,1.32,1.4,1.99,3.32,1.99,5.74.05,1.47-.25,2.93-.9,4.25-.64,1.32-1.6,2.47-2.79,3.33-1.51,1.08-3.21,1.85-5.02,2.27-.19.05-.4.05-.59,0-2.65-.58-5.66-1.11-9.05-1.59l-1.68-.22Z" fill="#3a3a39"/>
  <path d="M21.21,22.99H.99v57.31h12.71c.37,0,.73-.13,1-.39s.43-.6.45-.98v-17.24c.01-.37.17-.72.45-.98.27-.25.63-.39,1-.38h4.62c15.05,0,24.03-7.11,24.03-19.03,0-8.39-4.17-18.31-24.03-18.31ZM15.15,36.4c.02-.37.18-.72.45-.98.27-.25.63-.39,1-.39h3.81c9.91,0,10.7,2.72,10.7,6.24s-.82,7-10.7,7h-3.78c-.37,0-.73-.13-1-.38-.27-.25-.43-.61-.45-.98l-.03-10.51Z" fill="#3a3a39"/>
  <path d="M74.28,22.06c-14.82,0-24.78,11.79-24.78,29.35s9.96,29.81,24.78,29.81,24.78-11.98,24.78-29.81-9.96-29.35-24.78-29.35ZM74.28,68.73c-7.65,0-10.37-8.95-10.37-17.32s2.72-16.86,10.37-16.86,10.37,8.71,10.37,16.86-2.72,17.32-10.37,17.32Z" fill="#3a3a39"/>
  <path d="M209.36,64.27c-3.02,3.09-6.04,4.47-9.8,4.47-8.58,0-13.91-6.61-13.91-17.24s5.33-16.94,13.91-16.94c1.6-.02,3.19.28,4.67.89,1.48.61,2.82,1.51,3.95,2.65l1.52,1.47c.28.27.65.42,1.04.42s.76-.15,1.04-.42l6.92-6.98c.13-.13.23-.28.29-.44.07-.17.1-.34.1-.52s-.03-.36-.1-.52c-.07-.17-.17-.32-.29-.44l-1.4-1.36c-4.72-4.64-11.08-7.22-17.7-7.19-16.94,0-28.32,11.89-28.32,29.58s11.37,29.57,27.65,29.57c7.89,0,14.54-2.84,19.74-8.45l1.31-1.4c.24-.26.38-.61.37-.96,0-.36-.16-.7-.41-.94l-6.96-6.75c-.28-.28-.65-.43-1.04-.43s-.76.15-1.04.43l-1.5,1.51Z" fill="#3a3a39"/>
  <path d="M246.82,22.06c-14.82,0-24.78,11.79-24.78,29.35s9.96,29.81,24.78,29.81,24.78-11.98,24.78-29.81c.01-17.56-9.96-29.35-24.78-29.35ZM246.82,68.73c-7.65,0-10.37-8.95-10.37-17.32s2.72-16.86,10.37-16.86,10.37,8.71,10.37,16.86-2.72,17.32-10.37,17.32Z" fill="#3a3a39"/>
  <path d="M232.7,103.9h2.67v-6.2h-2.04v-.74c.82-.07,1.63-.28,2.38-.62h.9v7.56h2.4v.91h-6.28l-.03-.91Z" fill="#3a3a39"/>
  <path d="M239.47,104.06l.68-.68c.52.44,1.17.68,1.85.68,1.49,0,2.81-.97,2.81-3.78,0-2.08-.89-3.19-2.41-3.19-.25-.02-.5.02-.74.1s-.45.22-.64.39-.33.38-.43.61c-.1.23-.15.48-.15.73,0,1.16.68,1.79,1.97,1.79.46-.02.91-.14,1.33-.35.41-.2.78-.49,1.08-.85l.04.86c-.71.71-1.67,1.13-2.68,1.16-1.71,0-2.87-.88-2.87-2.61,0-1.61,1.44-2.72,3.07-2.72,2.04,0,3.55,1.36,3.55,4.08,0,3.4-1.87,4.7-3.87,4.7-.95.01-1.87-.31-2.59-.92Z" fill="#3a3a39"/>
  <path d="M251.69,97.29h-5.32v-.95h6.69v.68c-2.44,2.56-3.04,4.47-3.19,7.77h-1.26c0-2.81,1.1-5.5,3.07-7.5Z" fill="#3a3a39"/>
  <path d="M254.27,104.14c3.13-2.53,4.84-4.02,4.84-5.45,0-.97-.64-1.64-2-1.64-.84.04-1.63.4-2.21,1.01l-.68-.63c.4-.4.88-.72,1.4-.94.52-.22,1.09-.33,1.66-.34,1.86,0,3.02.99,3.02,2.48s-1.74,3.17-4.24,5.25c.58-.04,1.17-.07,1.72-.07h3.03v.94h-6.51l-.02-.62Z" fill="#3a3a39"/>
  <path d="M267.71,100.57c0,.16-.04.32-.12.46-.08.14-.21.25-.36.31-.15.07-.31.09-.47.06s-.31-.1-.42-.21c-.12-.11-.2-.26-.23-.41-.03-.16-.02-.32.04-.47.06-.15.16-.28.3-.37.13-.09.29-.14.45-.14.1,0,.21.02.31.05.1.04.19.09.26.17.08.07.14.16.18.25.04.1.07.2.07.3Z" fill="#3a3a39"/>
  <path d="M227.07,100.57c0,.16-.04.32-.12.46-.08.14-.21.25-.36.31-.15.07-.31.09-.47.06-.16-.03-.31-.1-.42-.21-.12-.11-.2-.26-.23-.41-.04-.16-.02-.32.04-.47.06-.15.16-.28.3-.37.13-.09.29-.14.45-.14.1,0,.21.02.3.05s.19.09.26.17c.07.07.13.16.18.25.04.1.06.2.07.3Z" fill="#3a3a39"/>
</svg>
